dist/img/inst.svg

<svg width="27" height="26" viewBox="0 0 27 26" fill="none" xmlns="http://www.w3.org/2000/svg">
<path d="M18.6552 0.349609H8.3912C4.21982 0.349609 0.826172 3.74326 0.826172 7.91463V18.1786C0.826172 22.35 4.21982 25.7437 8.3912 25.7437H18.6552C22.8266 25.7437 26.2202 22.35 26.2202 18.1786V7.91463C26.2202 3.74326 22.8265 0.349609 18.6552 0.349609ZM23.6656 18.1786C23.6656 20.9458 21.4223 23.189 18.6552 23.189H8.3912C5.62406 23.189 3.38081 20.9458 3.38081 18.1786V7.91463C3.38081 5.14745 5.62406 2.90425 8.3912 2.90425H18.6552C21.4223 2.90425 23.6656 5.14745 23.6656 7.91463V18.1786Z" fill="url(#paint0_linear)"/>
<path d="M13.5229 6.47852C9.90139 6.47852 6.95508 9.42483 6.95508 13.0463C6.95508 16.6677 9.90139 19.6141 13.5229 19.6141C17.1444 19.6141 20.0907 16.6678 20.0907 13.0463C20.0907 9.42478 17.1444 6.47852 13.5229 6.47852ZM13.5229 17.0595C11.3065 17.0595 9.50972 15.2627 9.50972 13.0463C9.50972 10.8299 11.3065 9.03316 13.5229 9.03316C15.7393 9.03316 17.536 10.8299 17.536 13.0463C17.536 15.2627 15.7393 17.0595 13.5229 17.0595Z" fill="url(#paint1_linear)"/>
<path d="M20.105 8.10166C20.9742 8.10166 21.6788 7.39706 21.6788 6.52788C21.6788 5.65871 20.9742 4.9541 20.105 4.9541C19.2359 4.9541 18.5312 5.65871 18.5312 6.52788C18.5312 7.39706 19.2359 8.10166 20.105 8.10166Z" fill="url(#paint2_linear)"/>
<defs>
<linearGradient id="paint0_linear" x1="13.5232" y1="25.6697" x2="13.5232" y2="0.546849" gradientUnits="userSpaceOnUse">
<stop stop-color="#E09B3D"/>
<stop offset="0.3" stop-color="#C74C4D"/>
<stop offset="0.6" stop-color="#C21975"/>
<stop offset="1" stop-color="#7024C4"/>
</linearGradient>
<linearGradient id="paint1_linear" x1="13.5229" y1="25.6694" x2="13.5229" y2="0.546536" gradientUnits="userSpaceOnUse">
<stop stop-color="#E09B3D"/>
<stop offset="0.3" stop-color="#C74C4D"/>
<stop offset="0.6" stop-color="#C21975"/>
<stop offset="1" stop-color="#7024C4"/>
</linearGradient>
<linearGradient id="paint2_linear" x1="20.105" y1="25.6695" x2="20.105" y2="0.546592" gradientUnits="userSpaceOnUse">
<stop stop-color="#E09B3D"/>
<stop offset="0.3" stop-color="#C74C4D"/>
<stop offset="0.6" stop-color="#C21975"/>
<stop offset="1" stop-color="#7024C4"/>
</linearGradient>
</defs>
</svg>

<svg width="27" height="26" fill="none" xmlns="http://www.w3.org/2000/svg"><path d="M18.655.35H8.391C4.22.35.826 3.743.826 7.915v10.264c0 4.171 3.394 7.565 7.565 7.565h10.264c4.172 0 7.565-3.394 7.565-7.565V7.915c0-4.172-3.393-7.565-7.565-7.565zm5.01 17.829a5.01 5.01 0 01-5.01 5.01H8.391a5.01 5.01 0 01-5.01-5.01V7.915a5.01 5.01 0 015.01-5.01h10.264a5.01 5.01 0 015.01 5.01v10.264z" fill="url(#paint0_linear)"/><path d="M13.523 6.479a6.575 6.575 0 00-6.568 6.567 6.575 6.575 0 006.568 6.568 6.575 6.575 0 006.568-6.568 6.575 6.575 0 00-6.568-6.567zm0 10.58a4.013 4.013 0 110-8.026 4.013 4.013 0 010 8.027z" fill="url(#paint1_linear)"/><path d="M20.105 8.102a1.574 1.574 0 100-3.148 1.574 1.574 0 000 3.148z" fill="url(#paint2_linear)"/><defs><linearGradient id="paint0_linear" x1="13.523" y1="25.67" x2="13.523" y2=".547" gradientUnits="userSpaceOnUse"><stop stop-color="#E09B3D"/><stop offset=".3" stop-color="#C74C4D"/><stop offset=".6" stop-color="#C21975"/><stop offset="1" stop-color="#7024C4"/></linearGradient><linearGradient id="paint1_linear" x1="13.523" y1="25.669" x2="13.523" y2=".547" gradientUnits="userSpaceOnUse"><stop stop-color="#E09B3D"/><stop offset=".3" stop-color="#C74C4D"/><stop offset=".6" stop-color="#C21975"/><stop offset="1" stop-color="#7024C4"/></linearGradient><linearGradient id="paint2_linear" x1="20.105" y1="25.669" x2="20.105" y2=".547" gradientUnits="userSpaceOnUse"><stop stop-color="#E09B3D"/><stop offset=".3" stop-color="#C74C4D"/><stop offset=".6" stop-color="#C21975"/><stop offset="1" stop-color="#7024C4"/></linearGradient></defs></svg>
